X:1
T:Jocky Say’d to Jeany
T:Jockey Said to Jenny [1]
M:3/2
L:1/8
R:Air
B:William Thomson - Orpheus Caledoniusm vol. 2  (1733, No. 7, p. 25 )
Z:AK/Fiddler’s Companion
K:G
G3B G2 B2G2d2|G2d2 ed cB A4|G3B G2B2G2d2|ede f gfg d {c}B4||
E2d2 efg d TB2 AG|d2G2 ed cB A4|G3F EF GA B2d2|e3f gfg d {c}B4||

